Newaita-dark/apps/64/com.github.dcharles525.pho.svg

<svg height="64" viewBox="0 0 64 64" width="64" xmlns="http://www.w3.org/2000/svg" xmlns:xlink="http://www.w3.org/1999/xlink"><linearGradient id="a"><stop offset="0" stop-opacity=".313726"/><stop offset=".222222" stop-opacity=".27451"/><stop offset="1" stop-opacity="0"/></linearGradient><radialGradient id="b" cx="450.908936" cy="189.579361" gradientTransform="matrix(.00000035 -.156265 -.281277 -.0000002 82.431087 127.190659)" gradientUnits="userSpaceOnUse" r="21.166656" xlink:href="#a"/><radialGradient id="c" cx="450.908936" cy="189.579361" gradientTransform="matrix(-.00000035 .156265 .281277 .0000002 -25.540232 -15.054964)" gradientUnits="userSpaceOnUse" r="21.166656" xlink:href="#a"/><radialGradient id="d" cx="450.908936" cy="189.579361" gradientTransform="matrix(-.00000035 -.156265 .281277 -.0000002 -25.540232 127.190659)" gradientUnits="userSpaceOnUse" r="21.166656" xlink:href="#a"/><radialGradient id="e" cx="450.908936" cy="189.579361" gradientTransform="matrix(.00000035 .156265 -.281277 .0000002 82.431084 -15.054965)" gradientUnits="userSpaceOnUse" r="21.166656" xlink:href="#a"/><linearGradient id="f" gradientTransform="matrix(.00763432 0 0 .125012 26.496208 26.877567)" gradientUnits="userSpaceOnUse" x1="255.323059" x2="255.323044" y1="233.5" y2="254.666656"><stop offset="0" stop-opacity=".27451"/><stop offset="1" stop-opacity="0"/></linearGradient><linearGradient id="g" gradientUnits="userSpaceOnUse" x1="31.753234" x2="31.753234" y1="56.2906775" y2="5.50064632645"><stop offset="0" stop-color="#66bb6a"/><stop offset="1" stop-color="#81c784"/></linearGradient><path d="m29.769531 56.066406h5.292969v-2.644531h-5.292969zm0 0" fill="url(#b)"/><path d="m27.121094 56.066406h-5.289063v2.648438h5.289063zm0 0" fill="url(#c)"/><path d="m27.121094 56.066406h-5.289063v-2.644531h5.289063zm0 0" fill="url(#d)"/><path d="m29.769531 56.066406h5.292969v2.648438h-5.292969zm0 0" fill="url(#e)"/><path d="m27.121094 55.40625h2.648437v3.308594h-2.648437zm0 0" fill="url(#f)"/><path d="m37.46875 6.457031c-2.527344-1.457031-6.675781-.101562-8.695312 3.398438-2.308594 3.996093 2.167968 10.855469 2.230468 18.285156-3.660156-6.46875-3.214844-14.644531-7.210937-16.953125-3.496094-2.019531-7.773438-1.121094-9.230469 1.40625-2.019531 3.496094-1.019531 6.144531-.125 7.503906.898438 1.363282.898438 1.363282-.726562 1.265625-1.628907-.097656-4.417969.359375-6.4375 3.859375-1.457032 2.523438-.390626 6.507813 3.398437 8.695313 4.085937 2.359375 11.648437-3.203125 19.070313-2.703125-6.574219 4.175781-15.335938 3.519531-17.738282 7.683594-2.019531 3.496093-1.117187 7.769531 1.40625 9.226562 3.496094 2.019531 6.144532 1.023438 7.503906.125 1.363282-.898438 1.363282-.898438 1.265626.730469-.097657 1.625.359374 4.417969 3.859374 6.4375 2.523438 1.457031 6.507813.390625 8.695313-3.398438 2.4375-4.21875-3.570313-12.140625-2.632813-19.789062 4.632813 6.15625 3.390626 16.019531 7.613282 18.453125 3.785156 2.1875 7.769531 1.121094 9.226562-1.402344 2.019532-3.5 1.023438-6.144531.125-7.507812-.898437-1.359376-.898437-1.359376.730469-1.261719 1.625.097656 4.417969-.363281 6.4375-3.859375 1.457031-2.527344.101563-6.675782-3.398437-8.695313-4.160157-2.402343-11.421876 2.542969-19.199219 2.214844 6.175781-4.144531 15.503906-3.105469 17.867187-7.195313 2.183594-3.789062 1.117188-7.773437-1.40625-9.230468-3.5-2.019532-6.144531-1.019532-7.507812-.125-1.359375.898437-1.359375.898437-1.261719-.726563.097656-1.628906-.363281-4.417969-3.859375-6.4375zm0 0" fill="url(#g)"/><path d="m35.183594 5.878906c-2.296875-.007812-4.929688 1.40625-6.410156 3.976563-.523438.902343-.695313 1.953125-.65625 3.121093.039062-.90625.234374-1.734374.65625-2.464843 2.019531-3.496094 6.167968-4.855469 8.695312-3.398438 3.027344 1.75 3.777344 4.074219 3.863281 5.726563.082031-1.636719-.40625-4.386719-3.863281-6.382813-.671875-.386719-1.457031-.578125-2.285156-.578125zm-15.464844 4.199219c-2.234375-.007813-4.242188.9375-5.15625 2.515625-.953125 1.648438-1.234375 3.109375-1.171875 4.335938.058594-1.078126.386719-2.3125 1.171875-3.675782 1.457031-2.527344 5.734375-3.425781 9.230469-1.40625 3.996093 2.308594 3.550781 10.484375 7.210937 16.953125 0-.234375-.007812-.464843-.019531-.695312-3.636719-6.460938-3.199219-14.613281-7.191406-16.917969-1.3125-.757812-2.730469-1.105469-4.074219-1.109375zm26.3125 2.488281c-1.503906.015625-2.675781.550782-3.441406 1.054688-.929688.617187-1.222656.808594-1.285156.347656-.0625 1.199219.054687 1.125 1.285156.3125 1.363281-.898438 4.007812-1.894531 7.507812.125 1.5.867188 2.484375 2.625 2.578125 4.703125.105469-2.363281-.921875-4.40625-2.578125-5.363281-1.53125-.882813-2.898437-1.1875-4.066406-1.179688zm-32.640625 8.785156c-1.652344-.019531-4.222656.589844-6.117187 3.871094-.46875.808594-.675782 1.769532-.617188 2.769532.046875-.761719.253906-1.480469.617188-2.113282 2.019531-3.496094 4.808593-3.957031 6.4375-3.859375 1.328124.082031 1.570312.09375 1.128906-.644531-.207032.042969-.574219.019531-1.128906-.011719-.101563-.007812-.207032-.011719-.320313-.011719zm36.671875 5.945313c-4.003906-.011719-9.503906 2.792969-15.367188 2.890625-.363281.199219-.714843.414062-1.058593.644531 7.777343.328125 15.039062-4.621093 19.199219-2.21875 2.441406 1.410157 3.839843 3.855469 3.964843 6.0625.144531-2.363281-1.277343-5.167969-3.964843-6.71875-.8125-.46875-1.742188-.660156-2.773438-.660156zm-21.367188 4.546875c-.007812 0-.015624 0-.023437 0-6.417969 3.488281-14.394531 3.113281-16.667969 7.054688-.824218 1.425781-1.160156 2.984374-1.101562 4.425781.050781-1.25.402344-2.554688 1.101562-3.769531 2.402344-4.160157 11.164063-3.507813 17.738282-7.679688-.347657-.023438-.695313-.035156-1.046876-.03125zm3.308594 2.40625c-.125 5.746094 3.132813 11.507812 3.308594 15.625.183594-3.996094-3.183594-9.785156-3.308594-15.625zm16.664063 6.90625c-.394531.078125-.191407.382812.398437 1.277344.476563.71875.976563 1.796875 1.046875 3.167968.085938-1.6875-.496093-2.996093-1.046875-3.828124-.164062-.25-.296875-.453126-.398437-.617188zm-26.464844 7.40625c-.007813.125-.015625.261719-.023437.417969-.015626.21875-.015626.457031-.003907.714843 0-.019531 0-.039062.003907-.058593.027343-.511719.050781-.863281.023437-1.074219zm0 0" fill="#fff" fill-opacity=".392157"/><path d="m41.320312 12.027344c-.027343.507812-.046874.847656 0 1.035156 0-.054688.003907-.109375.007813-.167969.015625-.261719.015625-.554687-.007813-.867187zm-13.195312.140625c-.234375 3.835937 2.484375 9.171875 2.839844 14.921875.015625.023437.027344.046875.039062.066406-.046875-5.667969-2.664062-11.003906-2.878906-14.988281zm-14.722656 3.941406c-.132813 1.765625.472656 3.132813 1.035156 3.988281.078125.117188.144531.21875.207031.316406.636719-.027343.464844-.28125-.207031-1.296874-.453125-.691407-.933594-1.714844-1.035156-3.007813zm39.265625 2.179687c-.078125 1.191407-.445313 2.457032-1.164063 3.703126-2.363281 4.089843-11.691406 3.050781-17.867187 7.195312.574219.027344 1.148437.019531 1.71875-.007812 6.066406-3.007813 13.996093-2.480469 16.148437-6.203126.917969-1.59375 1.261719-3.226562 1.164063-4.6875zm-46 8.886719c-.210938 2.324219 1.09375 5.0625 4.003906 6.742188 3.769531 2.175781 10.496094-2.386719 17.339844-2.714844.589843-.292969 1.167969-.613281 1.730469-.96875-7.421876-.503906-14.984376 5.0625-19.070313 2.699219-2.507813-1.445313-3.824219-3.679688-4.003906-5.757813zm25.433593 4.074219c-.089843.726562-.117187 1.453125-.09375 2.183594.015626-.402344.042969-.800782.09375-1.203125 4.632813 6.15625 3.390626 16.019531 7.613282 18.453125 3.785156 2.1875 7.769531 1.121094 9.226562-1.402344.996094-1.722656 1.257813-3.242188 1.164063-4.5-.082031 1.042969-.414063 2.21875-1.164063 3.515625-1.457031 2.523437-5.441406 3.59375-9.226562 1.40625-4.222656-2.4375-2.980469-12.300781-7.613282-18.453125zm24.6875 2.601562c-.058593.65625-.242187 1.273438-.554687 1.816407-2.019531 3.5-4.8125 3.957031-6.4375 3.859375-1.488281-.085938-1.613281-.09375-.9375.949218.21875-.007812.523437.011719.9375.035157 1.625.097656 4.417969-.363281 6.4375-3.859375.464844-.808594.644531-1.78125.554687-2.800782zm-45.878906 8.652344c-.148437 2.417969.8125 4.648438 2.5 5.621094 3.496094 2.019531 6.144532 1.023438 7.503906.125.878907-.578125 1.1875-.78125 1.273438-.421875.085938-1.453125.039062-1.425781-1.273438-.5625-1.359374.898437-4.007812 1.898437-7.503906-.121094-1.457031-.839843-2.371094-2.617187-2.5-4.640625zm11.273438 6.359375c0 .039063-.003906.074219-.003906.117188-.097657 1.625.359374 4.417969 3.859374 6.4375 2.523438 1.457031 6.507813.390625 8.695313-3.398438.492187-.851562.640625-1.855469.570313-2.972656-.050782.726563-.226563 1.394531-.570313 1.988281-2.1875 3.789063-6.171875 4.855469-8.695313 3.398438-2.9375-1.695313-3.730468-3.933594-3.855468-5.570313zm0 0" fill-opacity=".235294"/><path d="m299.721378-163.348682c-20.216819-11.655137-53.40115-.812423-69.555858 27.184904-18.466986 31.965697 17.342094 86.835457 17.842046 146.267282-29.278454-51.745059-25.716294-117.145064-57.681991-135.61205-27.96608-16.154707-62.181562-8.967894-73.836699 11.248926-16.154707 27.966079-8.155471 49.151556-.999905 60.025518 7.186814 10.905208 7.186814 10.905208-5.811945 10.124033-13.030005-.781176-35.340375 2.874725-51.495082 30.872052-11.655137 20.185572-3.124702 52.057528 27.184904 69.555857 32.684379 18.873198 93.178602-25.622553 152.547932-21.622935-52.588728 33.40306-122.675785 28.153562-141.8927 61.462881-16.154707 27.966079-8.936646 62.150315 11.248926 73.805452 27.96608 16.154707 49.151556 8.186718 60.025518.999904 10.905209-7.186813 10.905209-7.186813 10.124033 5.843192-.781175 12.998759 2.874726 35.340376 30.872052 51.495083 20.185572 11.655137 52.057529 3.124701 69.555858-27.184904 19.498138-33.746777-28.559773-97.115726-21.060489-158.297383 37.058961 49.245297 27.12241 128.144012 60.900434 147.610903 30.278359 17.498329 62.150315 8.967894 73.805452-11.217678 16.154708-27.997327 8.186718-49.151557.999905-60.056765-7.186814-10.873962-7.186814-10.873962 5.843192-10.092786 12.998758.781175 35.340375-2.905973 51.495082-30.872052 11.655137-20.21682.812423-53.401151-27.184904-69.555858-33.278072-19.216915-91.366275 20.341807-153.579084 17.717058 49.401533-33.153084 124.019407-24.841378 142.923852-57.557004 17.467082-30.309605 8.936646-62.181561-11.248926-73.836698-27.997326-16.154708-49.151556-8.155472-60.056765-.999905-10.873961 7.186814-10.873961 7.186814-10.092786-5.811945.781175-13.030006-2.905973-35.340375-30.872052-51.495082zm0 0" fill="none" stroke="#212121" stroke-linecap="round" stroke-linejoin="round" stroke-width="3" transform="matrix(.125012 0 0 .125012 0 26.877566)"/></svg>

<?xml version="1.0" encoding="UTF-8"?>
<svg xmlns="http://www.w3.org/2000/svg" xmlns:xlink="http://www.w3.org/1999/xlink" width="64px" height="64px" viewBox="0 0 64 64" version="1.1">
<defs>
<radialGradient id="radial0" gradientUnits="userSpaceOnUse" cx="450.908936" cy="189.579361" fx="450.908936" fy="189.579361" r="21.166656" gradientTransform="matrix(0.000000348341,-0.156265,-0.281277,-0.000000203077,82.431087,127.190659)">
<stop offset="0" style="stop-color:rgb(0%,0%,0%);stop-opacity:0.313726;"/>
<stop offset="0.222222" style="stop-color:rgb(0%,0%,0%);stop-opacity:0.27451;"/>
<stop offset="1" style="stop-color:rgb(0%,0%,0%);stop-opacity:0;"/>
</radialGradient>
<radialGradient id="radial1" gradientUnits="userSpaceOnUse" cx="450.908936" cy="189.579361" fx="450.908936" fy="189.579361" r="21.166656" gradientTransform="matrix(-0.000000348341,0.156265,0.281277,0.000000203077,-25.540232,-15.054964)">
<stop offset="0" style="stop-color:rgb(0%,0%,0%);stop-opacity:0.313726;"/>
<stop offset="0.222222" style="stop-color:rgb(0%,0%,0%);stop-opacity:0.27451;"/>
<stop offset="1" style="stop-color:rgb(0%,0%,0%);stop-opacity:0;"/>
</radialGradient>
<radialGradient id="radial2" gradientUnits="userSpaceOnUse" cx="450.908936" cy="189.579361" fx="450.908936" fy="189.579361" r="21.166656" gradientTransform="matrix(-0.000000348341,-0.156265,0.281277,-0.000000203077,-25.540232,127.190659)">
<stop offset="0" style="stop-color:rgb(0%,0%,0%);stop-opacity:0.313726;"/>
<stop offset="0.222222" style="stop-color:rgb(0%,0%,0%);stop-opacity:0.27451;"/>
<stop offset="1" style="stop-color:rgb(0%,0%,0%);stop-opacity:0;"/>
</radialGradient>
<radialGradient id="radial3" gradientUnits="userSpaceOnUse" cx="450.908936" cy="189.579361" fx="450.908936" fy="189.579361" r="21.166656" gradientTransform="matrix(0.000000348341,0.156265,-0.281277,0.000000203077,82.431084,-15.054965)">
<stop offset="0" style="stop-color:rgb(0%,0%,0%);stop-opacity:0.313726;"/>
<stop offset="0.222222" style="stop-color:rgb(0%,0%,0%);stop-opacity:0.27451;"/>
<stop offset="1" style="stop-color:rgb(0%,0%,0%);stop-opacity:0;"/>
</radialGradient>
<linearGradient id="linear0" gradientUnits="userSpaceOnUse" x1="255.323059" y1="233.5" x2="255.323044" y2="254.666656" gradientTransform="matrix(0.00763432,0,0,0.125012,26.496208,26.877567)">
<stop offset="0" style="stop-color:rgb(0%,0%,0%);stop-opacity:0.27451;"/>
<stop offset="1" style="stop-color:rgb(0%,0%,0%);stop-opacity:0;"/>
</linearGradient>
<linearGradient id="linear1" gradientUnits="userSpaceOnUse" x1="254" y1="233.5" x2="254" y2="-168.666672" gradientTransform="matrix(0.126291,0,0,0.126291,-0.32468,26.801729)">
<stop offset="0" style="stop-color:rgb(40.000001%,73.333335%,41.568628%);stop-opacity:1;"/>
<stop offset="1" style="stop-color:rgb(50.588238%,78.039217%,51.764709%);stop-opacity:1;"/>
</linearGradient>
</defs>
<g id="surface1">
<path style=" stroke:none;fill-rule:nonzero;fill:url(#radial0);" d="M 29.769531 56.066406 L 35.0625 56.066406 L 35.0625 53.421875 L 29.769531 53.421875 Z M 29.769531 56.066406 "/>
<path style=" stroke:none;fill-rule:nonzero;fill:url(#radial1);" d="M 27.121094 56.066406 L 21.832031 56.066406 L 21.832031 58.714844 L 27.121094 58.714844 Z M 27.121094 56.066406 "/>
<path style=" stroke:none;fill-rule:nonzero;fill:url(#radial2);" d="M 27.121094 56.066406 L 21.832031 56.066406 L 21.832031 53.421875 L 27.121094 53.421875 Z M 27.121094 56.066406 "/>
<path style=" stroke:none;fill-rule:nonzero;fill:url(#radial3);" d="M 29.769531 56.066406 L 35.0625 56.066406 L 35.0625 58.714844 L 29.769531 58.714844 Z M 29.769531 56.066406 "/>
<path style=" stroke:none;fill-rule:nonzero;fill:url(#linear0);" d="M 27.121094 55.40625 L 29.769531 55.40625 L 29.769531 58.714844 L 27.121094 58.714844 Z M 27.121094 55.40625 "/>
<path style=" stroke:none;fill-rule:nonzero;fill:url(#linear1);" d="M 37.46875 6.457031 C 34.941406 5 30.792969 6.355469 28.773438 9.855469 C 26.464844 13.851562 30.941406 20.710938 31.003906 28.140625 C 27.34375 21.671875 27.789062 13.496094 23.792969 11.1875 C 20.296875 9.167969 16.019531 10.066406 14.5625 12.59375 C 12.542969 16.089844 13.542969 18.738281 14.4375 20.097656 C 15.335938 21.460938 15.335938 21.460938 13.710938 21.363281 C 12.082031 21.265625 9.292969 21.722656 7.273438 25.222656 C 5.816406 27.746094 6.882812 31.730469 10.671875 33.917969 C 14.757812 36.277344 22.320312 30.714844 29.742188 31.214844 C 23.167969 35.390625 14.40625 34.734375 12.003906 38.898438 C 9.984375 42.394531 10.886719 46.667969 13.410156 48.125 C 16.90625 50.144531 19.554688 49.148438 20.914062 48.25 C 22.277344 47.351562 22.277344 47.351562 22.179688 48.980469 C 22.082031 50.605469 22.539062 53.398438 26.039062 55.417969 C 28.5625 56.875 32.546875 55.808594 34.734375 52.019531 C 37.171875 47.800781 31.164062 39.878906 32.101562 32.230469 C 36.734375 38.386719 35.492188 48.25 39.714844 50.683594 C 43.5 52.871094 47.484375 51.804688 48.941406 49.28125 C 50.960938 45.78125 49.964844 43.136719 49.066406 41.773438 C 48.167969 40.414062 48.167969 40.414062 49.796875 40.511719 C 51.421875 40.609375 54.214844 40.148438 56.234375 36.652344 C 57.691406 34.125 56.335938 29.976562 52.835938 27.957031 C 48.675781 25.554688 41.414062 30.5 33.636719 30.171875 C 39.8125 26.027344 49.140625 27.066406 51.503906 22.976562 C 53.6875 19.1875 52.621094 15.203125 50.097656 13.746094 C 46.597656 11.726562 43.953125 12.726562 42.589844 13.621094 C 41.230469 14.519531 41.230469 14.519531 41.328125 12.894531 C 41.425781 11.265625 40.964844 8.476562 37.46875 6.457031 Z M 37.46875 6.457031 "/>
<path style=" stroke:none;fill-rule:nonzero;fill:rgb(100%,100%,100%);fill-opacity:0.392157;" d="M 35.183594 5.878906 C 32.886719 5.871094 30.253906 7.285156 28.773438 9.855469 C 28.25 10.757812 28.078125 11.808594 28.117188 12.976562 C 28.15625 12.070312 28.351562 11.242188 28.773438 10.511719 C 30.792969 7.015625 34.941406 5.65625 37.46875 7.113281 C 40.496094 8.863281 41.246094 11.1875 41.332031 12.839844 C 41.414062 11.203125 40.925781 8.453125 37.46875 6.457031 C 36.796875 6.070312 36.011719 5.878906 35.183594 5.878906 Z M 19.71875 10.078125 C 17.484375 10.070312 15.476562 11.015625 14.5625 12.59375 C 13.609375 14.242188 13.328125 15.703125 13.390625 16.929688 C 13.449219 15.851562 13.777344 14.617188 14.5625 13.253906 C 16.019531 10.726562 20.296875 9.828125 23.792969 11.847656 C 27.789062 14.15625 27.34375 22.332031 31.003906 28.800781 C 31.003906 28.566406 30.996094 28.335938 30.984375 28.105469 C 27.347656 21.644531 27.785156 13.492188 23.792969 11.1875 C 22.480469 10.429688 21.0625 10.082031 19.71875 10.078125 Z M 46.03125 12.566406 C 44.527344 12.582031 43.355469 13.117188 42.589844 13.621094 C 41.660156 14.238281 41.367188 14.429688 41.304688 13.96875 C 41.242188 15.167969 41.359375 15.09375 42.589844 14.28125 C 43.953125 13.382812 46.597656 12.386719 50.097656 14.40625 C 51.597656 15.273438 52.582031 17.03125 52.675781 19.109375 C 52.78125 16.746094 51.753906 14.703125 50.097656 13.746094 C 48.566406 12.863281 47.199219 12.558594 46.03125 12.566406 Z M 13.390625 21.351562 C 11.738281 21.332031 9.167969 21.941406 7.273438 25.222656 C 6.804688 26.03125 6.597656 26.992188 6.65625 27.992188 C 6.703125 27.230469 6.910156 26.511719 7.273438 25.878906 C 9.292969 22.382812 12.082031 21.921875 13.710938 22.019531 C 15.039062 22.101562 15.28125 22.113281 14.839844 21.375 C 14.632812 21.417969 14.265625 21.394531 13.710938 21.363281 C 13.609375 21.355469 13.503906 21.351562 13.390625 21.351562 Z M 50.0625 27.296875 C 46.058594 27.285156 40.558594 30.089844 34.695312 30.1875 C 34.332031 30.386719 33.980469 30.601562 33.636719 30.832031 C 41.414062 31.160156 48.675781 26.210938 52.835938 28.613281 C 55.277344 30.023438 56.675781 32.46875 56.800781 34.675781 C 56.945312 32.3125 55.523438 29.507812 52.835938 27.957031 C 52.023438 27.488281 51.09375 27.296875 50.0625 27.296875 Z M 28.695312 31.84375 C 28.6875 31.84375 28.679688 31.84375 28.671875 31.84375 C 22.253906 35.332031 14.277344 34.957031 12.003906 38.898438 C 11.179688 40.324219 10.84375 41.882812 10.902344 43.324219 C 10.953125 42.074219 11.304688 40.769531 12.003906 39.554688 C 14.40625 35.394531 23.167969 36.046875 29.742188 31.875 C 29.394531 31.851562 29.046875 31.839844 28.695312 31.84375 Z M 32.003906 34.25 C 31.878906 39.996094 35.136719 45.757812 35.3125 49.875 C 35.496094 45.878906 32.128906 40.089844 32.003906 34.25 Z M 48.667969 41.15625 C 48.273438 41.234375 48.476562 41.539062 49.066406 42.433594 C 49.542969 43.152344 50.042969 44.230469 50.113281 45.601562 C 50.199219 43.914062 49.617188 42.605469 49.066406 41.773438 C 48.902344 41.523438 48.769531 41.320312 48.667969 41.15625 Z M 22.203125 48.5625 C 22.195312 48.6875 22.1875 48.824219 22.179688 48.980469 C 22.164062 49.199219 22.164062 49.4375 22.175781 49.695312 C 22.175781 49.675781 22.175781 49.65625 22.179688 49.636719 C 22.207031 49.125 22.230469 48.773438 22.203125 48.5625 Z M 22.203125 48.5625 "/>
<path style=" stroke:none;fill-rule:nonzero;fill:rgb(0%,0%,0%);fill-opacity:0.235294;" d="M 41.320312 12.027344 C 41.292969 12.535156 41.273438 12.875 41.320312 13.0625 C 41.320312 13.007812 41.324219 12.953125 41.328125 12.894531 C 41.34375 12.632812 41.34375 12.339844 41.320312 12.027344 Z M 28.125 12.167969 C 27.890625 16.003906 30.609375 21.339844 30.964844 27.089844 C 30.980469 27.113281 30.992188 27.136719 31.003906 27.15625 C 30.957031 21.488281 28.339844 16.152344 28.125 12.167969 Z M 13.402344 16.109375 C 13.269531 17.875 13.875 19.242188 14.4375 20.097656 C 14.515625 20.214844 14.582031 20.316406 14.644531 20.414062 C 15.28125 20.386719 15.109375 20.132812 14.4375 19.117188 C 13.984375 18.425781 13.503906 17.402344 13.402344 16.109375 Z M 52.667969 18.289062 C 52.589844 19.480469 52.222656 20.746094 51.503906 21.992188 C 49.140625 26.082031 39.8125 25.042969 33.636719 29.1875 C 34.210938 29.214844 34.785156 29.207031 35.355469 29.179688 C 41.421875 26.171875 49.351562 26.699219 51.503906 22.976562 C 52.421875 21.382812 52.765625 19.75 52.667969 18.289062 Z M 6.667969 27.175781 C 6.457031 29.5 7.761719 32.238281 10.671875 33.917969 C 14.441406 36.09375 21.167969 31.53125 28.011719 31.203125 C 28.601562 30.910156 29.179688 30.589844 29.742188 30.234375 C 22.320312 29.730469 14.757812 35.296875 10.671875 32.933594 C 8.164062 31.488281 6.847656 29.253906 6.667969 27.175781 Z M 32.101562 31.25 C 32.011719 31.976562 31.984375 32.703125 32.007812 33.433594 C 32.023438 33.03125 32.050781 32.632812 32.101562 32.230469 C 36.734375 38.386719 35.492188 48.25 39.714844 50.683594 C 43.5 52.871094 47.484375 51.804688 48.941406 49.28125 C 49.9375 47.558594 50.199219 46.039062 50.105469 44.78125 C 50.023438 45.824219 49.691406 47 48.941406 48.296875 C 47.484375 50.820312 43.5 51.890625 39.714844 49.703125 C 35.492188 47.265625 36.734375 37.402344 32.101562 31.25 Z M 56.789062 33.851562 C 56.730469 34.507812 56.546875 35.125 56.234375 35.667969 C 54.214844 39.167969 51.421875 39.625 49.796875 39.527344 C 48.308594 39.441406 48.183594 39.433594 48.859375 40.476562 C 49.078125 40.46875 49.382812 40.488281 49.796875 40.511719 C 51.421875 40.609375 54.214844 40.148438 56.234375 36.652344 C 56.699219 35.84375 56.878906 34.871094 56.789062 33.851562 Z M 10.910156 42.503906 C 10.761719 44.921875 11.722656 47.152344 13.410156 48.125 C 16.90625 50.144531 19.554688 49.148438 20.914062 48.25 C 21.792969 47.671875 22.101562 47.46875 22.1875 47.828125 C 22.273438 46.375 22.226562 46.402344 20.914062 47.265625 C 19.554688 48.164062 16.90625 49.164062 13.410156 47.144531 C 11.953125 46.304688 11.039062 44.527344 10.910156 42.503906 Z M 22.183594 48.863281 C 22.183594 48.902344 22.179688 48.9375 22.179688 48.980469 C 22.082031 50.605469 22.539062 53.398438 26.039062 55.417969 C 28.5625 56.875 32.546875 55.808594 34.734375 52.019531 C 35.226562 51.167969 35.375 50.164062 35.304688 49.046875 C 35.253906 49.773438 35.078125 50.441406 34.734375 51.035156 C 32.546875 54.824219 28.5625 55.890625 26.039062 54.433594 C 23.101562 52.738281 22.308594 50.5 22.183594 48.863281 Z M 22.183594 48.863281 "/>
<path style="fill:none;stroke-width:3;stroke-linecap:round;stroke-linejoin:round;stroke:rgb(12.941177%,12.941177%,12.941177%);stroke-opacity:1;stroke-miterlimit:4;" d="M 299.721378 -163.348682 C 279.504559 -175.003819 246.320228 -164.161105 230.16552 -136.163778 C 211.698534 -104.198081 247.507614 -49.328321 248.007566 10.103504 C 218.729112 -41.641555 222.291272 -107.04156 190.325575 -125.508546 C 162.359495 -141.663253 128.144013 -134.47644 116.488876 -114.25962 C 100.334169 -86.293541 108.333405 -65.108064 115.488971 -54.234102 C 122.675785 -43.328894 122.675785 -43.328894 109.677026 -44.110069 C 96.647021 -44.891245 74.336651 -41.235344 58.181944 -13.238017 C 46.526807 6.947555 55.057242 38.819511 85.366848 56.31784 C 118.051227 75.191038 178.54545 30.695287 237.91478 34.694905 C 185.326052 68.097965 115.238995 62.848467 96.02208 96.157786 C 79.867373 124.123865 87.085434 158.308101 107.271006 169.963238 C 135.237086 186.117945 156.422562 178.149956 167.296524 170.963142 C 178.201733 163.776329 178.201733 163.776329 177.420557 176.806334 C 176.639382 189.805093 180.295283 212.14671 208.292609 228.301417 C 228.478181 239.956554 260.350138 231.426118 277.848467 201.116513 C 297.346605 167.369736 249.288694 104.000787 256.787978 42.81913 C 293.846939 92.064427 283.910388 170.963142 317.688412 190.430033 C 347.966771 207.928362 379.838727 199.397927 391.493864 179.212355 C 407.648572 151.215028 399.680582 130.060798 392.493769 119.15559 C 385.306955 108.281628 385.306955 108.281628 398.336961 109.062804 C 411.335719 109.843979 433.677336 106.156831 449.832043 78.190752 C 461.48718 57.973932 450.644466 24.789601 422.647139 8.634894 C 389.369067 -10.582021 331.280864 28.976701 269.068055 26.351952 C 318.469588 -6.801132 393.087462 1.510574 411.991907 -31.205052 C 429.458989 -61.514657 420.928553 -93.386613 400.742981 -105.04175 C 372.745655 -121.196458 351.591425 -113.197222 340.686216 -106.041655 C 329.812255 -98.854841 329.812255 -98.854841 330.59343 -111.8536 C 331.374605 -124.883606 327.687457 -147.193975 299.721378 -163.348682 Z M 299.721378 -163.348682 " transform="matrix(0.125012,0,0,0.125012,0,26.877566)"/>
</g>
</svg>
